static/assets/images/networks/polkadot.svg

<svg width="256" height="256" viewBox="0 0 256 256" fill="none" xmlns="http://www.w3.org/2000/svg">
<path d="M128 256C198.692 256 256 198.692 256 128C256 57.3075 198.692 0 128 0C57.3075 0 0 57.3075 0 128C0 198.692 57.3075 256 128 256Z" fill="#E6007A"/>
<path d="M128.002 75.2013C146.185 75.2013 160.925 66.6239 160.925 56.0432C160.925 45.4624 146.185 36.8851 128.002 36.8851C109.819 36.8851 95.0786 45.4624 95.0786 56.0432C95.0786 66.6239 109.819 75.2013 128.002 75.2013Z" fill="white"/>
<path d="M128.002 219.554C146.185 219.554 160.925 210.977 160.925 200.396C160.925 189.815 146.185 181.238 128.002 181.238C109.819 181.238 95.0786 189.815 95.0786 200.396C95.0786 210.977 109.819 219.554 128.002 219.554Z" fill="white"/>
<path d="M82.1212 101.721C91.2126 85.9658 91.1536 68.9025 81.9894 63.6086C72.8251 58.3146 58.026 66.7948 48.9345 82.5495C39.8431 98.3043 39.9021 115.368 49.0663 120.662C58.2306 125.955 73.0297 117.475 82.1212 101.721Z" fill="white"/>
<path d="M207.054 173.888C216.146 158.134 216.092 141.073 206.934 135.783C197.776 130.492 182.982 138.976 173.89 154.73C164.799 170.485 164.853 187.545 174.011 192.836C183.169 198.126 197.963 189.643 207.054 173.888Z" fill="white"/>
<path d="M81.9939 192.831C91.1582 187.537 91.2172 170.474 82.1257 154.719C73.0343 138.965 58.2352 130.485 49.0709 135.778C39.9067 141.072 39.8477 158.136 48.9391 173.89C58.0306 189.645 72.8297 198.125 81.9939 192.831Z" fill="white"/>
<path d="M206.942 120.666C216.1 115.375 216.154 98.315 207.062 82.5602C197.971 66.8055 183.177 58.3224 174.019 63.6128C164.861 68.9031 164.807 85.9636 173.898 101.718C182.989 117.473 197.784 125.956 206.942 120.666Z" fill="white"/>
</svg>

<svg xmlns="http://www.w3.org/2000/svg" fill="none" viewBox="0 0 256 256"><path fill="#E6007A" d="M128 256c70.692 0 128-57.308 128-128S198.692 0 128 0 0 57.308 0 128s57.308 128 128 128"/><path fill="#fff" d="M128.002 75.201c18.183 0 32.923-8.577 32.923-19.158 0-10.58-14.74-19.158-32.923-19.158s-32.923 8.577-32.923 19.158c0 10.58 14.74 19.158 32.923 19.158m0 144.353c18.183 0 32.923-8.577 32.923-19.158s-14.74-19.158-32.923-19.158-32.923 8.577-32.923 19.158 14.74 19.158 32.923 19.158M82.121 101.721c9.092-15.755 9.033-32.818-.132-38.112s-23.963 3.186-33.055 18.94c-9.09 15.755-9.032 32.819.132 38.113s23.964-3.187 33.055-18.941m124.933 72.167c9.092-15.754 9.038-32.815-.12-38.105-9.158-5.291-23.952 3.193-33.044 18.947-9.091 15.755-9.037 32.815.121 38.106 9.158 5.29 23.952-3.193 33.043-18.948m-125.06 18.943c9.164-5.294 9.223-22.357.132-38.112-9.092-15.754-23.89-24.234-33.055-18.941s-9.223 22.358-.132 38.112 23.89 24.235 33.055 18.941m124.948-72.165c9.158-5.291 9.212-22.351.12-38.106-9.091-15.755-23.885-24.238-33.043-18.947-9.158 5.29-9.212 22.35-.121 38.105s23.886 24.238 33.044 18.948"/></svg>
